X:1     %Music
T:Twenty, Eighteen
B:Broadwood, L, 1893, English County Songs, London, Leadenhall Press
S:Besthorpe, near Attleborough. Norfolk
Z:Lucy Broadwood
F:http://www.folkinfo.org/songs
M:4/4     %Meter
L:1/8     %
K:F
HC2 |F2 F2 (ED) (EC) |F2 F2 (ED) (EC) |F2 F2 G2 A2 | B2 c2 A2 z
w:Ho! yon-der stands_ a_ charm-ing crea_ ture_ Who she is I do not know;
 F |(FG) (AB) c2 A2 |d2 E2 F2 GC |c2 c2 A2 G2 | A2 D2 (D2HC2)
w: I'll go_ and_ court her for her beau-ty Un-til she do say yes or no. *
 |F2 FD E2 C2 |F2 FD E2 C2 |F2 F2 G2 A2 | B2 c2 A4 |
w:Twen-ty,_ eigh-teen, six-teen_ four-teen, Twelve, ten, eight, six, four, two, nought;
(F G) (A B) c2 A2 |d2 E2 F2 G G |F G A B c2 F2 | F2 E2 D2 |]
w:Nine-* teen_ seven-teen fif-teen. thir-teen, E-lev-en, nine and seven, Five, three, and one 